web-components-icons/e500-image/SVG/snap-to-snaplines.svg

<?xml version="1.0" encoding="utf-8"?>
<!-- Generator: Adobe Illustrator 24.2.0, SVG Export Plug-In . SVG Version: 6.00 Build 0)  -->
<svg version="1.1" id="Layer_1" xmlns="http://www.w3.org/2000/svg" xmlns:xlink="http://www.w3.org/1999/xlink" x="0px" y="0px"
	 width="512px" height="512px" viewBox="0 0 512 512" xml:space="preserve">
<path d="M224,128h96V96h-96V32h-32v64h-64V32H96v64H32v32h64v256H32v32h64v64h32v-64h64v64h32v-64h256v-32H224V128z M192,384h-64
	V128h64V384z M400,320h-32v-32h32c26.5,0,48-21.5,48-48s-21.5-48-48-48h-32v-32h32c44.2,0,80,35.8,80,80S444.2,320,400,320z
	 M352,160h-32v32h32V160z M320,320h32v-32h-32V320z"/>
</svg>

<svg xmlns="http://www.w3.org/2000/svg" viewBox="0 0 512 512"><title>snap-to-snaplines</title><g id="snap_to_snaplines" data-name="snap to snaplines"><path d="M224,128h96V96H224V32H192V96H128V32H96V96H32v32H96V384H32v32H96v64h32V416h64v64h32V416H480V384H224ZM192,384H128V128h64Zm208-64H368V288h32a48,48,0,0,0,0-96H368V160h32a80,80,0,0,1,0,160ZM352,160H320v32h32ZM320,320h32V288H320Z"/></g></svg>
